X:11
T:The Glen Cottage #2
R:polka
M:2/4
L:1/8
K:Gm
"Gm"   BG GF | DG G2 | "(Bb)" B>A GF | Bc d>c |
"Gm"   BG GF | DG D2 | "(Dm)" d>c BA |1 "Gm" G2 Gd/c/ :|2 "Gm" G2 Gc ||
"Gm"   dg ga | gf dc | dg ga | g2 ga |
"(Bb)" b2 a2 | gf d>c | "Dm" dG G/A/B/c/ | d2 d>c :|
